X: 11
T: No_109_Hinata_Dance_Song_(e).krn
N: Derived from No_109_Hinata_Dance_Song_(e).krn
%%abc-version 2.0
%%abcx-abcm2ps-target-version 5.9.1 (29 Sep 2008)
%%abc-creator hum2abc beta
%%abcx-conversion-date 2019/03/15 08:38:45
%%humdrum-veritas 2326666023
%%humdrum-veritas-data 1995084630
%%linebreak <none>
%%barnumbers 0
L: 1/8
M: 2/4
K: F clef=bass
[K:clef=bass][M:2/4]D/C3/ (3CB,A, [I:setbarnb 2]| 
(3:2:4CB,A, F,F,(3:2:1E,/ ||  
[M:3/8]F,/F,3/A, ||  
[M:2/4]C3B, | 
(3A,F,F, (3(F,E,)F, | 
F,2C, z/ E,/ ||  
[M:3/4]F,/C,/C,/C,/C,2E,2 ||  
[M:2/4]F,2(F,A,) | 
(3A,F,F, F,3/F,/ | 
F,2C,C, ||  
[M:3/4](3(D,/C,)C,C,2z C, :|]  



